svg/u1f460.svg

<svg viewBox="0 0 128 128" xmlns="http://www.w3.org/2000/svg">
  <g>
    <path d="M60.39,41.1c14.95,34.22,33.52,49.96,33.52,49.96s-7.36,2.05-11.73,3.07 c-7.4,1.73-13.13,3.96-20.39,0.47c-9.34-4.49-14.93-22.68-17.74-40.23C40.11,29.83,30.76,22.12,27.57,8.55 c-0.56-2.37,1.12-2.93,3.07-1.82C39.58,11.85,55.22,30.76,60.39,41.1z" fill="#263238"/>
    <path d="M73.38,96.55c-10.34-7.96-16.56-20.88-20.64-31.11c-1.8-4.52-4.55-9.87-8.39-14.93 c0,0,2.35,29.84,12.55,40.04C64.63,98.27,73.38,96.55,73.38,96.55z" fill="#2F7889"/>
    <path d="M118.95,109.48c-1.71-4.06-6.81-8.56-9.17-10.28c-5.48-4.02-18.41-12.1-30.5-28.87 c-7.53-10.45-11.1-20.5-18.44-33.04C46.34,12.5,31.35,0.74,26.18,4.69C23.42,6.79,13.3,17.42,10.32,26.6 C7.6,35,7.37,39.46,9.75,45.8c0.45,1.2,1,2.29,1.62,3.3c0.01,0.02,0.01,0.03,0.02,0.05c7.93,16.69,6.75,57.15,6.75,57.15 s0.62,1.94,3.65,1.94c3.03,0,3.99-1.8,3.99-1.8s-0.71-28.44,3.35-39.74c1.26,1.53,2.47,3.24,3.58,5.18 c7.25,12.64,8.84,35,17.67,42.37c7.38,6.15,17.9,7.62,27.13,8.59c11.99,1.25,24.25,2.27,35.86-1.69c2.29-0.78,5.05-2.03,6-4.41 C120.29,114.46,119.88,111.7,118.95,109.48z M84.03,92.45c-8.2,2.26-13.31,4.46-20.22,1.32C52.61,88.67,49.7,74.6,45.58,52.19 C42.34,34.59,34.16,22.46,28.4,8.86c-0.41-0.97,1.09-1.58,2.02-1.08c12.75,6.83,27.65,30.61,31.27,38.56 c15.01,32.95,29.96,44.51,29.96,44.51S86.14,91.87,84.03,92.45z" fill="#F44336"/>
    <path d="M96.89,113.22c-0.88,2.18-7.39,2.63-9.59,2.51c-4.38-0.22-10.89-0.65-13.41-2.42 c-2.51-1.77-1.3-2.7,0.19-3.72c1.49-1.02,6.71-1.84,10.67-1.54C86.19,108.15,98.47,109.31,96.89,113.22z" opacity="0.94" fill="#FF9F9F"/>
    <path d="M119.47,116.49c0.21-0.59,0.35-1.4,0.35-1.4s-4.26,7.01-36.08,5.33c-9.83-0.52-23.28-2.33-31.14-9 c-7.21-6.12-11.17-28-13.63-34.24c-7.75-19.65-18.2-20.06-18.2-20.06s7.05,6.2,11.95,14.74c7.25,12.64,8.58,35.31,17.67,42.37 c11.11,8.62,28.56,9.21,36.79,9.49C104.18,124.3,117.11,122.66,119.47,116.49z" fill="#A12524"/>
    <path d="M25.79,106.43c0,0-0.02-0.88-0.03-2.38c-0.62,0.36-1.25,0.68-1.94,0.89 c-1.89,0.58-4.03,0.19-5.63-0.96c-0.02,1.48-0.04,2.32-0.04,2.32s0.62,1.94,3.65,1.94C24.83,108.24,25.79,106.43,25.79,106.43z" fill="#A12524"/>
    <path d="M21.24,29.72c-1.55,2.93-2.61,6.12-3.13,9.39c-0.18,1.12-0.39,2.62-1.5,2.87 c-1.34,0.3-5.11-2.84-3.73-12.04c0.61-4.02,3.06-6.92,6.03-7.42C23.27,21.8,22.47,27.39,21.24,29.72z" fill="#FF9797"/>
  </g>
</svg>

<svg viewBox="0 0 128 128" xmlns="http://www.w3.org/2000/svg">
  <defs/>
  <path d="M60.39,41.1 C75.34,75.32 93.91,91.06 93.91,91.06 C93.91,91.06 86.55,93.11 82.18,94.13 C74.78,95.86 69.05,98.09 61.79,94.6 C52.45,90.11 46.86,71.92 44.05,54.37 C40.11,29.83 30.76,22.12 27.57,8.55 C27.01,6.18 28.69,5.62 30.64,6.73 C39.58,11.85 55.22,30.76 60.39,41.1 Z" fill="#263238"/>
  <path d="M73.38,96.55 C63.04,88.59 56.82,75.67 52.74,65.44 C50.94,60.92 48.19,55.57 44.35,50.51 C44.35,50.51 46.7,80.35 56.9,90.55 C64.63,98.27 73.38,96.55 73.38,96.55 Z" fill="#2F7889"/>
  <path d="M118.95,109.48 C117.24,105.42 112.14,100.92 109.78,99.2 C104.3,95.18 91.37,87.1 79.28,70.33 C71.75,59.88 68.18,49.83 60.84,37.29 C46.34,12.5 31.35,0.74 26.18,4.69 C23.42,6.79 13.3,17.42 10.32,26.6 C7.6,35 7.37,39.46 9.75,45.8 C10.2,47 10.75,48.09 11.37,49.1 C11.38,49.12 11.38,49.13 11.39,49.15 C19.32,65.84 18.14,106.3 18.14,106.3 C18.14,106.3 18.76,108.24 21.79,108.24 C24.82,108.24 25.78,106.44 25.78,106.44 C25.78,106.44 25.07,78 29.13,66.7 C30.39,68.23 31.6,69.94 32.71,71.88 C39.96,84.52 41.55,106.88 50.38,114.25 C57.76,120.4 68.28,121.87 77.51,122.84 C89.5,124.09 101.76,125.11 113.37,121.15 C115.66,120.37 118.42,119.12 119.37,116.74 C120.29,114.46 119.88,111.7 118.95,109.48 Z M84.03,92.45 C75.83,94.71 70.72,96.91 63.81,93.77 C52.61,88.67 49.7,74.6 45.58,52.19 C42.34,34.59 34.16,22.46 28.4,8.86 C27.99,7.89 29.49,7.28 30.42,7.78 C43.17,14.61 58.07,38.39 61.69,46.34 C76.7,79.29 91.65,90.85 91.65,90.85 C91.65,90.85 86.14,91.87 84.03,92.45 Z" fill="#F44336"/>
  <path d="M96.89,113.22 C96.01,115.4 89.5,115.85 87.3,115.73 C82.92,115.51 76.41,115.08 73.89,113.31 C71.38,111.54 72.59,110.61 74.08,109.59 C75.57,108.57 80.79,107.75 84.75,108.05 C86.19,108.15 98.47,109.31 96.89,113.22 Z" fill="#FF9F9F" opacity="0.94"/>
  <path d="M119.47,116.49 C119.68,115.9 119.82,115.09 119.82,115.09 C119.82,115.09 115.56,122.1 83.74,120.42 C73.91,119.9 60.46,118.09 52.6,111.42 C45.39,105.3 41.43,83.42 38.97,77.18 C31.22,57.53 20.77,57.12 20.77,57.12 C20.77,57.12 27.82,63.32 32.72,71.86 C39.97,84.5 41.3,107.17 50.39,114.23 C61.5,122.85 78.95,123.44 87.18,123.72 C104.18,124.3 117.11,122.66 119.47,116.49 Z" fill="#A12524"/>
  <path d="M25.79,106.43 C25.79,106.43 25.77,105.55 25.76,104.05 C25.14,104.41 24.51,104.73 23.82,104.94 C21.93,105.52 19.79,105.13 18.19,103.98 C18.17,105.46 18.15,106.3 18.15,106.3 C18.15,106.3 18.77,108.24 21.8,108.24 C24.83,108.24 25.79,106.43 25.79,106.43 Z" fill="#A12524"/>
  <path d="M21.24,29.72 C19.69,32.65 18.63,35.84 18.11,39.11 C17.93,40.23 17.72,41.73 16.61,41.98 C15.27,42.28 11.5,39.14 12.88,29.94 C13.49,25.92 15.94,23.02 18.91,22.52 C23.27,21.8 22.47,27.39 21.24,29.72 Z" fill="#FF9797"/>
</svg>
